X: 450
T: Luxenburgh
P: Longways for as many as will
%R: jig
B: "The Dancing-Master" printed by John Walsh, London
S: 6: CCDM1 http://imslp.org/wiki/The_Compleat_Country_Dancing-Master_(Various) V.1 p.9 #21
Z: 2012-2013 John Chambers <jc:trillian.mit.edu>
N: 2nd part has initial repeat but no final repeat.
M: 6/4
L: 1/4
K: G
% - - - - - - - - - - - - - - - - - - - - - - - - -
D |\
G>AG G2A | B>cB B2c | d>ed c2B | A3- A2g |\
c>dc c2g | B>cB B2d | A>BG FDF | G3- G2 :|
|: d |\
d>ed g2d | d>ed e2d | efg fga | f3 f>ga |\
ABc EA^G | A3- A2B | cBA A2^G | A3- A2A |
A>BA AEA | F3 D2A | d2e dcB | A3- A2B |\
GFE cBA | FED BAG | FDG TG2F | G3 G2 :|
% - - - - - - - - - - - - - - - - - - - - - - - - -
%%begintext align
%% The 1st Man cast off and turns the Wo. and casts up again into his
%% own Place .|  First Wo. does the same with the 3d Man :|  The 1st
%% Man turns his Partner with his Right Hand half round, and back
%% again with his Left, then both cast off and lead through the 3d Cu.
%% and cast up to the Top .|  First Cu. cross over and half figure at
%% Top, 1st and 2d Cu. Right and Left quite round.
%%endtext

%%sep 1 1 500
%%sep 1 1 500
